X: 16394
T: Gwrachod Llanddona
R: jig
M: 6/8
K: Eminor
|:B|BcB AGA|BcB B2B|efe ded|cdc B3| 
BcB AGA|BcB e2f|gfe def|e3 e2:| 
|:f|gfe fed|e2B B2B|gfe fed|e2e B3|
gfe fed|e2B B2A|GAB gfd|e3 e2 :

